X:1
T:Caligaverunt oculi mei - Zoilo
T:#
%%score [ 1 2 3 4 ]
L:1/8
Q:1/4=200
M:none
K:F
V:1 treble nm="Soprano" snm="S"
V:2 treble nm="Alto" snm="A"
V:3 treble-8 nm="Tenor" snm="T"
V:4 bass nm="Bass" snm="B"
V:1
"^Caligaverunt oculi mei""^Annibale Zoilo\n(c.1537-92)" ^F8 F4 F4 | G8 A8 | c12 B4 | %3
w: Ca- li- ga-|ve- runt|o- cu-|
 A4 (B8 A2 G2) | ^F16 |[M:4/2] z8 G8- | G8 (B6 A2 | BABc dcBA G2 F2 _E2 D2) | C4 (c8 =B2 A2) | %9
w: li me\- * *|i|a|* fle\- *||tu me\- * *|
 =B8 z8 | G12 G4 | G4 G4 A6 G2 | ^F4 G4 E4 G4 | (A4 B4) c4 B4 | (A4 G8) F4 | G4 B4 c8- | c8 =B8 | %17
w: o:|qui- a|e- lon- ga- tus|est a me, qui|con\- * so- la-|ba\- * tur|me. Vi- de\-|* te,|
 z8 G8 | G16 | G8 A8- | A4 B4 c8- | c4 c4 !fermata!F8 || z8 (B6 c2 | d4) B8 (A4- | A2 G2 G8 ^F4) | %25
w: vi-|de-|te o\-|* mnes po\-|* pu- li,|Si *|* est do\-||
 G4 G8 G4 | G8 B8 | A4 G4 A8 | (G6 FE FEFG AGAB | A2 G2 G2 FE ^F2 G4 F2) | !fermata!G16 || d16 | %32
w: lor si- mi-|lis si-|cut do- lor|me\- * * * * * * * * * *||us.|O|
 c8 B8 | A16 | c8 c4 c4- | c4 B4 A4 (cBcd | cd_ed cBAG A2 B4 A2) | B8 z4 B4 | B8 c4 d4- | %39
w: vos o-|mnes,|qui tran- si\-|* tis per vi\- * * *||am, at-|ten- di- te|
 d4 B4 (A4 c2 d2) | (cBAG ABcA B2 A2 G2 F2 | E2 D2 G6 ^FE F4) | G16 || z8 (B6 c2 | d4) B8 (A4- | %45
w: * et vi\- * *|de\- * * * * * * * * * * *||te.|Si *|* est do\-|
 A2 G2 G8 ^F4) | G4 G8 G4 | G8 B8 | A4 G4 A8 | %49
w: |lor si- mi-|lis si-|cut do- lor|
[Q:1/4=196] (G6[Q:1/4=193] F[Q:1/4=192]E[Q:1/4=191] F[Q:1/4=190]E[Q:1/4=189]F[Q:1/4=188]G[Q:1/4=187] A[Q:1/4=186]G[Q:1/4=185]A[Q:1/4=184]B | %50
w: me\- * * * * * * * * * *|
[Q:1/4=183] A2[Q:1/4=181] G2[Q:1/4=179] G2[Q:1/4=178] =F[Q:1/4=177]E[Q:1/4=176] ^F2[Q:1/4=173] G4[Q:1/4=170] F2) | %51
w: |
[Q:1/4=170] !fermata!G16 |] %52
w: us.|
V:2
 D8 D4 D4 | D8 F8 | G12 F4 | F4 (D6 CB, C4) | D16 |[M:4/2] z8 D8- | D8 _E8 | D8 (_E6 F2 | G8) G8- | %9
w: Ca- li- ga-|ve- runt|o- cu-|li me\- * * *|i|a|* fle-|tu me\- *|* o:|
 G8 z8 | D12 D4 | E4 D4 F6 E2 | D4 D4 C4 E4- | E4 F4 G4 F4 | (_E12 D2 C2) | (B,8 A,4 G,4- | %16
w: |qui- a|e- lon- ga- tus|est a me, qui|* con- so- la-|ba\- * *||
 G,4) ^F,4 G,8 | z8 D8 | _E16 | D8 F8 | F8 _E8- | E4 _E4 !fermata!D8 || z8 F8- | F8 F4 (F4- | %24
w: * tur me.|Vi-|de-|te o-|mnes po\-|* pu- li,|Si|* est do\-|
 F2 E2 D2 C2 D8) | D4 E8 E4 | E8 z8 | C12 D4 | _E4 C4 D8- | D16 | !fermata!D16 || D16 | F8 G8 | %33
w: |lor si- mi-|lis|si- cut|do- lor me\-||us.|O|vos o-|
 D8 z4 F4- | F4 F4 F8 | E4 D4 (F6 E2 | D4 C2 B,2 C8) | B,16 | z4 D4 E4 F4 | G8 F4 E4 | F8 D4 _E4 | %41
w: mnes, qui|* tran- si-|tis per vi\- *||am,|at- ten- di-|te et vi-|de- te, et|
 (C4 B,4) A,8 | G,16 || z8 F8- | F8 F4 (F4- | F2 E2 D2 C2 D8) | D4 E8 E4 | E8 z8 | C12 D4 | %49
w: vi\- * de-|te.|Si|* est do\-||lor si- mi-|lis|si- cut|
 _E4 C4 D8- | D16 | !fermata!D16 |] %52
w: do- lor me\-||us.|
V:3
 A8 A4 A4 | B8 c8 | _e12 d4 | c4 (B2 A2 G8) | A16 |[M:4/2][K:treble-8] z8 B8- | B8 G8 | F8 (c6 d2 | %8
w: Ca- li- ga-|ve- runt|o- cu-|li me\- * *|i|a|* fle-|tu me\- *|
 _e8) d8- | d8 z8 | =B12 B4 | c4 B4 c6 c2 | A4 B4 G4 c4- | c4 d4 _e4 d4 | (c6 B2 A8) | %15
w: * o:||qui- a|e- lon- ga- tus|est a me, qui|* con- so- la-|ba\- * *|
 (G4 F4) (E6 D2 | C8) D8 | z8 =B8 | c16 | =B8 c8- | c4 F4 G8- | G4 A4 !fermata!B8 || z8 d8- | %23
w: * * tur *|* me.|Vi-|de-|te o\-|* mnes po\-|* pu- li,|Si|
 d8 c8 | (B8 A8) | =B4 c8 c4 | c8 z8 | z16 | z4 c4 B4 A4 | B8 A8 | G16 ||[M:4/2] z16 | z16 | z16 | %34
w: * est|do\- *|lor si- mi-|lis||si- cut do-|lor me-|us.||||
 z16 | z16 | z16 | z16 |[M:4/2] z16 | z16 | z16 | z16 | z16 ||[M:4/2][K:treble-8] z8 d8- | d8 c8 | %45
w: |||||||||Si|* est|
 (B8 A8) | =B4 c8 c4 | c8 z8 | z16 | z4 c4 B4 A4 | B8 A8 | G16 |] %52
w: do\- *|lor si- mi-|lis||si- cut do-|lor me-|us.|
V:4
 D,8 D,4 D,4 | G,8 F,8 | C,12 D,4 | (F,4 G,4) _E,8 | D,16 |[M:4/2] z8 G,8- | G,8 _E,8 | B,,8 C,8- | %8
w: Ca- li- ga-|ve- runt|o- cu-|li * me-|i|a|* fle-|tu me\-|
 C,8 G,8- | G,8 z8 | G,12 G,4 | C,4 G,4 F,6 C,2 | D,4 G,4 C,8 | z16 | z4 C,8 D,4 | %15
w: * o:||qui- a|e- lon- ga- tus|est a me,||qui con-|
 _E,4 D,4 (C,6 B,,2 | A,,4) A,,4 G,,8 | z8 G,8 | C,16 | G,8 F,8- | F,4 D,4 C,8- | %21
w: so- la- ba\- *|* tur me.|Vi-|de-|te o\-|* mnes po\-|
 C,4 C,4 !fermata!B,,8 || z8 B,,8- | B,,8 F,8 | D,16 | G,,4 C,8 C,4 | C,8 G,8 | (F,4 E,4) F,8 | %28
w: * pu- li,|Si|* est|do-|lor si- mi-|lis si-|cut * do-|
 _E,8 D,8- | D,16 | G,,16 ||[M:4/2] z16 | z16 | z16 | z16 | z16 | z16 | z16 |[M:4/2] z16 | z16 | %40
w: lor me\-||us.||||||||||
 z16 | z16 | z16 ||[M:4/2] z8 B,,8- | B,,8 F,8 | D,16 | G,,4 C,8 C,4 | C,8 G,8 | (F,4 E,4) F,8 | %49
w: |||Si|* est|do-|lor si- mi-|lis si-|cut * do-|
 _E,8 D,8- | D,16 | G,,16 |] %52
w: lor me\-||us.|

